X:1
T:Title
%%score { ( 1 3 ) | ( 2 4 ) }
L:1/8
Q:1/4=100
M:4/4
K:Eb
V:1 treble nm="Grand Piano"
V:3 treble 
V:2 bass 
V:4 bass 
V:1
 G3 F E2 G2 | B4 G4 | [A,DF]3 [G,E] [A,DF]2 [B,DG]2 | [G,E]6 z2 | [B,EG]3 [B,DF] [B,E]2 [EGB]2 | %5
w: W.~H.~Doane * * *|||||
 [EAc]4 [EGB]4 | [EGB]3 [B,EG] [B,EF]2 [A,DF]2 | [G,E]6 z2 | [EAc]2 [EAc][EAc] [EAc]2 [EAc]2 | %9
w: ||||
 [EAc]4 [GB]4 | [GB]2 [GB][GB] [GB]2 [F=A]2 | B8 | [EGB]2 GF E2 B2 | [Ec]4 [CEe]4 | %14
w: |||||
 [EGB]3 [B,EG] [B,EF]2 [A,DF]2 | [G,E]6 z2 |] %16
w: ||
V:2
 [E,B,E]3 [E,A,D] [E,G,]2 [E,B,E]2 | [E,G,E]4 [E,B,E]4 | B,,3 B,, B,,2 B,,2 | E,6 z2 | %4
 E,3 A, G,2 E,2 | A,4 E,4 | E,3 E, B,,2 B,,2 | E,6 z2 | A,2 A,A, A,2 A,2 | E,4 z2 C2 | %10
 [D,D]2 [D,D][D,D] [D,D]2 [D,D]2 | [G,G]4 z4 | E,2 [E,B,E][E,A,D] [E,G,]2 [E,G,E]2 | %13
 [A,,A,]4 A,,4 | B,,3 B,, B,,2 B,,2 | E,6 z2 |] %16
V:3
 x8 | x8 | x8 | x8 | x8 | x8 | x8 | x8 | x8 | z4 B,2 z2 | x8 | z4 A4 | x8 | x8 | x8 | x8 |] %16
V:4
 x8 | x8 | x8 | x8 | x8 | x8 | x8 | x8 | x8 | z4 E,4 | x8 | D4- [F,D]4 | x8 | x8 | x8 | x8 |] %16

